source/asset/images/icons/icon-cedro-logo.svg

<svg width="13" height="11" viewBox="0 0 13 11" fill="none" xmlns="http://www.w3.org/2000/svg">
<g opacity="0.4">
<path d="M5.86248 0H6.44968C6.48556 0 6.51997 0.0133702 6.54535 0.0371692C6.57072 0.0609682 6.58498 0.0932466 6.58498 0.126904V10.8731C6.58498 10.9068 6.57072 10.939 6.54535 10.9628C6.51997 10.9866 6.48556 11 6.44968 11H5.86248C5.09238 11 4.32983 10.8577 3.61838 10.5812C2.90694 10.3047 2.26054 9.89943 1.71612 9.38856C1.17171 8.87769 0.739937 8.27121 0.445479 7.60378C0.15102 6.93635 -0.000354833 6.22105 6.2456e-07 5.49873C6.2456e-07 4.04038 0.617653 2.64175 1.71708 1.61054C2.81651 0.579329 4.30766 0 5.86248 0Z" fill="white"/>
<path d="M12.862 0.000976562H8.20093C8.12471 0.000976562 8.06293 0.0589297 8.06293 0.130418V4.68627C8.06293 4.75776 8.12471 4.81571 8.20093 4.81571H12.862C12.9382 4.81571 13 4.75776 13 4.68627V0.130418C13 0.0589297 12.9382 0.000976562 12.862 0.000976562Z" fill="white"/>
<path d="M12.862 6.14453H8.20093C8.12471 6.14453 8.06293 6.20248 8.06293 6.27397V10.8666C8.06293 10.9381 8.12471 10.9961 8.20093 10.9961H12.862C12.9382 10.9961 13 10.9381 13 10.8666V6.27397C13 6.20248 12.9382 6.14453 12.862 6.14453Z" fill="white"/>
</g>
</svg>

<svg width="13" height="11" viewBox="0 0 13 11" fill="none" xmlns="http://www.w3.org/2000/svg"><path d="M5.862 0h.588a.14.14 0 01.095.037c.026.024.04.056.04.09v10.746a.123.123 0 01-.04.09.14.14 0 01-.095.037h-.588a6.2 6.2 0 01-2.244-.419A5.903 5.903 0 011.716 9.39a5.49 5.49 0 01-1.27-1.785A5.204 5.204 0 010 5.499C0 4.04.618 2.642 1.717 1.61 2.817.579 4.307 0 5.862 0zm7 .001H8.201c-.076 0-.138.058-.138.13v4.555c0 .072.062.13.138.13h4.661c.076 0 .138-.058.138-.13V.13c0-.071-.062-.129-.138-.129zm0 6.144H8.201c-.076 0-.138.057-.138.129v4.593c0 .071.062.13.138.13h4.661c.076 0 .138-.059.138-.13V6.274c0-.072-.062-.13-.138-.13z" opacity=".4" fill="#fff"/></svg>
